X:111
T:Rattling Bog, The
R:polka
H:Also in G, #113
D:Martin O'Connor: The Connachtman's Rambles
Z:id:hn-polka-111
M:2/4
L:1/8
K:A
c2 c>B|AF FE|FB Bc/B/|AF FE|c2 c>B|AF FE|FA Bc/B/|A2 AB:|
|:cB BA|cB BA|B2 Bc/B/|AF FE|cB BA|cB BA|B2 Bc/B/|A2 AB:|

